sofa-single.svg

<svg fill="currentColor" viewBox="0 0 24 24"><path d="M5 9.15V7c0-1.1.9-2 2-2h10c1.1 0 2 .9 2 2v2.16c-1.16.41-2 1.51-2 2.81V14H7v-2.04c0-1.29-.84-2.4-2-2.81M20 10c-1.1 0-2 .9-2 2v3H6v-3a2 2 0 1 0-4 0v5c0 1.1.9 2 2 2v2h2v-2h12v2h2v-2c1.1 0 2-.9 2-2v-5c0-1.1-.9-2-2-2"/></svg>

<svg  viewBox="0 0 24 24" fill="currentColor"><path  d="M5 9.15V7C5 5.9 5.9 5 7 5H17C18.1 5 19 5.9 19 7V9.16C17.84 9.57 17 10.67 17 11.97V14H7V11.96C7 10.67 6.16 9.56 5 9.15M20 10C18.9 10 18 10.9 18 12V15H6V12C6 10.9 5.11 10 4 10S2 10.9 2 12V17C2 18.1 2.9 19 4 19V21H6V19H18V21H20V19C21.1 19 22 18.1 22 17V12C22 10.9 21.1 10 20 10Z"/></svg>
